X:56
T:Lord Nelson’s Victory. RHu.056
T:Saxon’s Hp.,aka. RHu.056
S:R.Hughes MS,1823,Whitchurch,Shrops.
A:Whitchurch, Shropshire
Z:Neil Brookes 2006
M:4/4
L:1/8
Q:1/2=90
R:.Hornpipe
K:D
A2d2d2cd|ecAc d2ef|geaf bged|cdef edcB|!
A2d2d2 cd|ecAc d2cd|ecAc dBA^G|A2A2A2:|!
|:fg|abag fgfe|d2B2B2 gf|gagf efed|c2A2A2 fg|!
afaf bgbg|afaf bgbg|fgag fedc|d2d2d2:|

